packages/icons/brands/MaskBanner.svg

<svg width="250" height="72" viewBox="0 0 250 72" xmlns="http://www.w3.org/2000/svg">
<g>
        <g clip-path="url(#clip0)">
            <path
                d="M194.803 26.9428C201.401 26.9428 208.897 29.4783 209.345 37.5919H200.12C199.928 35.2466 197.75 34.169 194.867 34.169C192.176 34.169 190.959 35.1832 190.959 36.3876C190.959 37.4018 191.728 38.3526 194.162 38.7963L199.992 39.7471C205.822 40.8247 209.665 43.6138 209.665 49.0652C209.665 56.1646 203.195 59.4608 195.123 59.4608C186.987 59.4608 180.388 56.1012 179.748 47.9242L188.973 47.9876C189.421 50.6499 191.664 51.8543 194.931 51.8543C197.686 51.8543 199.351 51.0302 199.351 49.6991C199.351 48.6849 198.39 47.8608 196.34 47.5439L190.062 46.4663C184.681 45.5788 180.965 42.5996 180.965 37.2116C180.965 30.746 186.538 26.9428 194.803 26.9428ZM155.916 27.0623C159.305 27.0623 162.119 27.9488 164.421 29.4051V27.7588H174.782V58.469H164.421V56.7593C162.119 58.2157 159.305 59.1022 155.916 59.1022C147.538 59.1022 140.504 52.2003 140.504 43.0822C140.504 33.9009 147.538 27.0623 155.916 27.0623ZM95.233 15.3463L110.768 38.3851L126.238 15.3463H134.326V58.5044H123.478V36.8619L113.785 51.6499V51.7133H107.751V51.6499L97.9933 36.7349L98.0575 58.5044H87.209V15.3463H95.233ZM225.751 13.553V39.3209L236.592 27.7981H248.973L237.169 40.3339L250 58.5044H237.554L230.113 47.868L225.751 52.4898V58.5044H215.358V13.553H225.751ZM157.962 35.4205C153.742 35.4205 150.672 38.8398 150.672 43.0822C150.672 47.3247 153.742 50.6806 157.962 50.6806C160.265 50.6806 162.503 50.0474 164.421 47.8312V38.3332C162.503 36.1171 160.265 35.4205 157.962 35.4205Z"
                fill="white"
            />
            <path
                fill-rule="evenodd"
                clip-rule="evenodd"
                d="M36 70C54.7777 70 70 54.7777 70 36C70 17.2223 54.7777 2 36 2C17.2223 2 2 17.2223 2 36C2 54.7777 17.2223 70 36 70ZM72 36C72 55.8823 55.8823 72 36 72C16.1177 72 0 55.8823 0 36C0 16.1177 16.1177 0 36 0C55.8823 0 72 16.1177 72 36Z"
                fill="white"
            />
            <path
                fill-rule="evenodd"
                clip-rule="evenodd"
                d="M57.7288 27.1507V39.1059H21.2881L19.7203 39.106C21.3797 46.3599 27.9653 51.7783 35.8368 51.7783C42.3444 51.7783 47.9731 48.0749 50.666 42.6926L57.7288 42.6925V52.7347C57.7288 55.1117 55.771 57.0386 53.3559 57.0386H18.3729C15.9578 57.0386 14 55.1117 14 52.7347V27.1507H57.7288ZM46.4719 42.6926C44.1528 46.0296 40.2546 48.2195 35.8368 48.2195C31.4189 48.2195 27.5207 46.0296 25.2017 42.6926H46.4719ZM26.5113 30.0199C23.0844 30.0199 20.2494 32.514 19.7779 35.7584L23.5054 35.7585C23.9152 34.5097 25.1061 33.6065 26.5113 33.6065C27.9165 33.6065 29.1073 34.5097 29.5172 35.7585L33.2447 35.7584C32.7732 32.514 29.9382 30.0199 26.5113 30.0199ZM45.2175 30.0199C41.7906 30.0199 38.9556 32.514 38.4841 35.7584L42.2116 35.7585C42.6215 34.5097 43.8123 33.6065 45.2175 33.6065C46.6227 33.6065 47.8136 34.5097 48.2234 35.7585L51.9509 35.7584C51.4794 32.514 48.6444 30.0199 45.2175 30.0199ZM53.3559 14C55.771 14 57.7288 15.9269 57.7288 18.3039V23.5641H14V18.3039C14 15.9269 15.9578 14 18.3729 14H53.3559Z"
                fill="white"
            />
        </g>
        <defs>
            <clipPath id="clip0">
                <rect width="250" height="72" fill="white" />
            </clipPath>
        </defs>
    </g>
</svg>

<svg xmlns="http://www.w3.org/2000/svg" width="250" height="72">
    <g fill="#fff" clip-path="url(#MaskBanner_svg__a)">
        <path d="M194.803 26.943c6.598 0 14.094 2.535 14.542 10.649h-9.225c-.192-2.345-2.37-3.423-5.253-3.423-2.691 0-3.908 1.014-3.908 2.219 0 1.014.769 1.965 3.203 2.408l5.83.951c5.83 1.078 9.673 3.867 9.673 9.318 0 7.1-6.47 10.396-14.542 10.396-8.136 0-14.735-3.36-15.375-11.537l9.225.064c.448 2.662 2.691 3.866 5.958 3.866 2.755 0 4.42-.824 4.42-2.155 0-1.014-.961-1.838-3.011-2.155l-6.278-1.078c-5.381-.887-9.097-3.866-9.097-9.254 0-6.466 5.573-10.27 13.838-10.27Zm-38.887.12c3.389 0 6.203.886 8.505 2.342V27.76h10.361v30.71h-10.361v-1.71c-2.302 1.457-5.116 2.343-8.505 2.343-8.378 0-15.412-6.902-15.412-16.02 0-9.181 7.034-16.02 15.412-16.02ZM95.233 15.345l15.535 23.04 15.47-23.04h8.088v43.158h-10.848V36.862l-9.693 14.788v.063h-6.034v-.063l-9.758-14.915.065 21.77H87.209v-43.16h8.024Zm130.518-1.793V39.32l10.841-11.523h12.381l-11.804 12.536L250 58.504h-12.446l-7.441-10.636-4.362 4.622v6.014h-10.393V13.553h10.393ZM157.962 35.42c-4.22 0-7.29 3.42-7.29 7.662 0 4.243 3.07 7.599 7.29 7.599 2.303 0 4.541-.634 6.459-2.85v-9.498c-1.918-2.216-4.156-2.913-6.459-2.913Z"/>
        <path fill-rule="evenodd" d="M36 70c18.778 0 34-15.222 34-34S54.778 2 36 2 2 17.222 2 36s15.222 34 34 34Zm36-34c0 19.882-16.118 36-36 36S0 55.882 0 36 16.118 0 36 0s36 16.118 36 36Z" clip-rule="evenodd"/>
        <path fill-rule="evenodd" d="M57.729 27.15v11.956H19.72c1.66 7.254 8.245 12.672 16.117 12.672 6.507 0 12.136-3.703 14.829-9.085h7.063v10.042c0 2.377-1.958 4.304-4.373 4.304H18.373c-2.415 0-4.373-1.927-4.373-4.304V27.15h43.729ZM46.472 42.694a12.92 12.92 0 0 1-10.635 5.526 12.92 12.92 0 0 1-10.635-5.526h21.27ZM26.512 30.02c-3.428 0-6.263 2.494-6.734 5.738h3.727a3.155 3.155 0 0 1 3.006-2.152c1.405 0 2.596.904 3.006 2.152h3.728c-.472-3.244-3.307-5.738-6.734-5.738Zm18.706 0c-3.427 0-6.262 2.494-6.734 5.738h3.728a3.155 3.155 0 0 1 3.005-2.152c1.406 0 2.597.904 3.006 2.152h3.728c-.472-3.244-3.307-5.738-6.733-5.738ZM53.355 14c2.415 0 4.373 1.927 4.373 4.304v5.26H14v-5.26C14 15.927 15.958 14 18.373 14h34.983Z" clip-rule="evenodd"/>
    </g>
    <defs>
        <clipPath id="MaskBanner_svg__a">
            <path fill="#fff" d="M0 0h250v72H0z"/>
        </clipPath>
    </defs>
</svg>
